actions/scalable/office-chart-polar.svg

<?xml version="1.0" encoding="UTF-8" standalone="no"?>
<!-- Created with Inkscape (http://www.inkscape.org/) -->

<svg
   xmlns:dc="http://purl.org/dc/elements/1.1/"
   xmlns:cc="http://creativecommons.org/ns#"
   xmlns:rdf="http://www.w3.org/1999/02/22-rdf-syntax-ns#"
   xmlns:svg="http://www.w3.org/2000/svg"
   xmlns="http://www.w3.org/2000/svg"
   xmlns:sodipodi="http://sodipodi.sourceforge.net/DTD/sodipodi-0.dtd"
   xmlns:inkscape="http://www.inkscape.org/namespaces/inkscape"
   width="22"
   height="22"
   id="svg3760"
   version="1.1"
   inkscape:version="0.48+devel r"
   sodipodi:docname="office-chart-polar.svg">
  <defs
     id="defs3762" />
  <sodipodi:namedview
     id="base"
     pagecolor="#ffffff"
     bordercolor="#666666"
     borderopacity="1.0"
     inkscape:pageopacity="0.0"
     inkscape:pageshadow="2"
     inkscape:zoom="16.25"
     inkscape:cx="6.2122324"
     inkscape:cy="7.76104"
     inkscape:document-units="px"
     inkscape:current-layer="layer1"
     showgrid="true"
     fit-margin-top="0"
     fit-margin-left="0"
     fit-margin-right="0"
     fit-margin-bottom="0"
     inkscape:window-width="1366"
     inkscape:window-height="666"
     inkscape:window-x="-2"
     inkscape:window-y="25"
     inkscape:window-maximized="1"
     inkscape:showpageshadow="false"
     showguides="true">
    <inkscape:grid
       type="xygrid"
       id="grid4106"
       originx="-0.99998557px"
       originy="-1.0000252px" />
    <sodipodi:guide
       position="2.00001,19.99997"
       orientation="0,18"
       id="guide4229" />
    <sodipodi:guide
       position="20.00001,19.99997"
       orientation="18,0"
       id="guide4231" />
    <sodipodi:guide
       position="20.00001,1.99997"
       orientation="0,-18"
       id="guide4233" />
    <sodipodi:guide
       position="2.00001,1.99997"
       orientation="-18,0"
       id="guide4235" />
    <sodipodi:guide
       position="3.00001,18.99997"
       orientation="0,16"
       id="guide4237" />
    <sodipodi:guide
       position="19.00001,18.99997"
       orientation="16,0"
       id="guide4239" />
    <sodipodi:guide
       position="19.00001,2.99997"
       orientation="0,-16"
       id="guide4241" />
    <sodipodi:guide
       position="3.00001,2.99997"
       orientation="-16,0"
       id="guide4243" />
  </sodipodi:namedview>
  <metadata
     id="metadata3765">
    <rdf:RDF>
      <cc:Work
         rdf:about="">
        <dc:format>image/svg+xml</dc:format>
        <dc:type
           rdf:resource="http://purl.org/dc/dcmitype/StillImage" />
        <dc:title />
      </cc:Work>
    </rdf:RDF>
  </metadata>
  <g
     inkscape:label="Capa 1"
     inkscape:groupmode="layer"
     id="layer1"
     transform="translate(-551.28571,-607.64788)">
    <path
       style="opacity:1;fill:#666666;fill-opacity:1;stroke:none;stroke-width:2.79999995;stroke-miterlimit:4;stroke-dasharray:none;stroke-opacity:0.55026455"
       d="M 11.5,2 C 11.222995,2 11,2.2229948 11,2.5 11,2.7770052 11.222995,3 11.5,3 11.777005,3 12,2.7770052 12,2.5 12,2.2229948 11.777005,2 11.5,2 Z m -7,1 C 4.2229948,3 4,3.2229948 4,3.5 4,3.7770052 4.2229948,4 4.5,4 4.7770052,4 5,3.7770052 5,3.5 5,3.2229948 4.7770052,3 4.5,3 Z m 14,0 C 18.222995,3 18,3.2229948 18,3.5 18,3.7770052 18.222995,4 18.5,4 18.777005,4 19,3.7770052 19,3.5 19,3.2229948 18.777005,3 18.5,3 Z m -7,1 C 11.222995,4 11,4.2229948 11,4.5 11,4.7770052 11.222995,5 11.5,5 11.777005,5 12,4.7770052 12,4.5 12,4.2229948 11.777005,4 11.5,4 Z m -5,1 C 6.2229948,5 6,5.2229948 6,5.5 6,5.7770052 6.2229948,6 6.5,6 6.7770052,6 7,5.7770052 7,5.5 7,5.2229948 6.7770052,5 6.5,5 Z M 11,5 C 9.0985593,5 7.4122069,5.8783098 6.3144531,7.25 L 9.4433594,9.7539062 C 9.8092923,9.2970958 10.366524,9 11,9 l 0,-0.5 0,-2 z m 0,1.5 C 11,6.7770052 11.222995,7 11.5,7 11.777005,7 12,6.7770052 12,6.5 12,6.2229948 11.777005,6 11.5,6 11.222995,6 11,6.2229948 11,6.5 Z m 0,2 C 11,8.7770052 11.222995,9 11.5,9 11.777005,9 12,8.7770052 12,8.5 12,8.2229948 11.777005,8 11.5,8 11.222995,8 11,8.2229948 11,8.5 Z m 3.708984,-3.4355469 -2.65039,4.2421875 c 0.519459,0.3248556 0.870291,0.8812664 0.923828,1.5273434 l 4.988281,-0.416015 C 17.785146,8.1521675 16.53104,6.2022357 14.708984,5.0644531 Z M 3.5,10 C 3.2229948,10 3,10.222995 3,10.5 3,10.777005 3.2229948,11 3.5,11 3.7770052,11 4,10.777005 4,10.5 4,10.222995 3.7770052,10 3.5,10 Z m 2,0 C 5.2229948,10 5,10.222995 5,10.5 5,10.777005 5.2229948,11 5.5,11 5.7770052,11 6,10.777005 6,10.5 6,10.222995 5.7770052,10 5.5,10 Z m 2,0 C 7.2229948,10 7,10.222995 7,10.5 7,10.777005 7.2229948,11 7.5,11 7.7770052,11 8,10.777005 8,10.5 8,10.222995 7.7770052,10 7.5,10 Z m 2,0 C 9.2229948,10 9,10.222995 9,10.5 9,10.777005 9.2229948,11 9.5,11 9.7770052,11 10,10.777005 10,10.5 10,10.222995 9.7770052,10 9.5,10 Z m 2,0 C 11.222995,10 11,10.222995 11,10.5 11,10.777005 11.222995,11 11.5,11 11.777005,11 12,10.777005 12,10.5 12,10.222995 11.777005,10 11.5,10 Z m 0,2 C 11.222995,12 11,12.222995 11,12.5 11,12.777005 11.222995,13 11.5,13 11.777005,13 12,12.777005 12,12.5 12,12.222995 11.777005,12 11.5,12 Z m 2,0 C 13.222995,12 13,12.222995 13,12.5 13,12.777005 13.222995,13 13.5,13 13.777005,13 14,12.777005 14,12.5 14,12.222995 13.777005,12 13.5,12 Z M 9.5839844,12.416016 7.4609375,14.539062 C 8.3646875,15.442813 9.615,16 11,16 L 11,14.5 11,13 C 10.446,13 9.9454844,12.777516 9.5839844,12.416016 Z M 11,14.5 C 11,14.777005 11.222995,15 11.5,15 11.777005,15 12,14.777005 12,14.5 12,14.222995 11.777005,14 11.5,14 11.222995,14 11,14.222995 11,14.5 Z M 15.5,14 C 15.222995,14 15,14.222995 15,14.5 15,14.777005 15.222995,15 15.5,15 15.777005,15 16,14.777005 16,14.5 16,14.222995 15.777005,14 15.5,14 Z m -9,2 C 6.2229948,16 6,16.222995 6,16.5 6,16.777005 6.2229948,17 6.5,17 6.7770052,17 7,16.777005 7,16.5 7,16.222995 6.7770052,16 6.5,16 Z m 5,0 C 11.222995,16 11,16.222995 11,16.5 11,16.777005 11.222995,17 11.5,17 11.777005,17 12,16.777005 12,16.5 12,16.222995 11.777005,16 11.5,16 Z m 6,0 C 17.222995,16 17,16.222995 17,16.5 17,16.777005 17.222995,17 17.5,17 17.777005,17 18,16.777005 18,16.5 18,16.222995 17.777005,16 17.5,16 Z m -13,2 C 4.2229948,18 4,18.222995 4,18.5 4,18.777005 4.2229948,19 4.5,19 4.7770052,19 5,18.777005 5,18.5 5,18.222995 4.7770052,18 4.5,18 Z m 7,0 C 11.222995,18 11,18.222995 11,18.5 11,18.777005 11.222995,19 11.5,19 11.777005,19 12,18.777005 12,18.5 12,18.222995 11.777005,18 11.5,18 Z"
       transform="translate(551.28571,607.64788)"
       id="rect4219"
       inkscape:connector-curvature="0"
       sodipodi:nodetypes="ssssssssssssssssssssssssscccccccsssssssssscccccsssssssssssssssssssssssssssssssssssccccccsssssssssssssssssssssssssssssssssss" />
  </g>
</svg>

<svg height="22" width="22" xmlns="http://www.w3.org/2000/svg" xmlns:sodipodi="http://sodipodi.sourceforge.net/DTD/sodipodi-0.dtd" xmlns:inkscape="http://www.inkscape.org/namespaces/inkscape">
 <path d="m11.5 2c-0.277 0-0.5 0.223-0.5 0.5s0.223 0.5 0.5 0.5 0.5-0.223 0.5-0.5-0.223-0.5-0.5-0.5zm-7 1c-0.277 0-0.5 0.223-0.5 0.5s0.223 0.5 0.5 0.5 0.5-0.223 0.5-0.5-0.223-0.5-0.5-0.5zm14 0c-0.277 0-0.5 0.223-0.5 0.5s0.223 0.5 0.5 0.5 0.5-0.223 0.5-0.5-0.223-0.5-0.5-0.5zm-7 1c-0.277 0-0.5 0.223-0.5 0.5s0.223 0.5 0.5 0.5 0.5-0.223 0.5-0.5-0.223-0.5-0.5-0.5zm-5 1c-0.277 0-0.5 0.223-0.5 0.5s0.223 0.5 0.5 0.5 0.5-0.223 0.5-0.5-0.223-0.5-0.5-0.5zm4.5 0c-1.9014 0-3.5878 0.8783-4.6855 2.25l3.1289 2.5039c0.3659-0.4568 0.9236-0.7539 1.5566-0.7539v-0.5-2zm0 1.5c0 0.277 0.223 0.5 0.5 0.5s0.5-0.223 0.5-0.5-0.223-0.5-0.5-0.5-0.5 0.223-0.5 0.5zm0 2c0 0.277 0.223 0.5 0.5 0.5s0.5-0.223 0.5-0.5-0.223-0.5-0.5-0.5-0.5 0.223-0.5 0.5zm3.709-3.4355-2.6504 4.2422c0.51946 0.32486 0.87029 0.88127 0.92383 1.5273l4.9883-0.41602c-0.186-2.2658-1.44-4.2158-3.262-5.3535zm-11.209 4.9355c-0.277 0-0.5 0.223-0.5 0.5s0.223 0.5 0.5 0.5 0.5-0.223 0.5-0.5-0.223-0.5-0.5-0.5zm2 0c-0.277 0-0.5 0.223-0.5 0.5s0.223 0.5 0.5 0.5 0.5-0.223 0.5-0.5-0.223-0.5-0.5-0.5zm2 0c-0.277 0-0.5 0.223-0.5 0.5s0.223 0.5 0.5 0.5 0.5-0.223 0.5-0.5-0.223-0.5-0.5-0.5zm2 0c-0.277 0-0.5 0.223-0.5 0.5s0.223 0.5 0.5 0.5 0.5-0.223 0.5-0.5-0.223-0.5-0.5-0.5zm2 0c-0.277 0-0.5 0.223-0.5 0.5s0.223 0.5 0.5 0.5 0.5-0.223 0.5-0.5-0.223-0.5-0.5-0.5zm0 2c-0.277 0-0.5 0.223-0.5 0.5s0.223 0.5 0.5 0.5 0.5-0.223 0.5-0.5-0.223-0.5-0.5-0.5zm2 0c-0.277 0-0.5 0.223-0.5 0.5s0.223 0.5 0.5 0.5 0.5-0.223 0.5-0.5-0.223-0.5-0.5-0.5zm-3.916 0.416-2.1231 2.123c0.9038 0.904 2.1541 1.461 3.5391 1.461v-1.5-1.5c-0.554 0-1.0545-0.222-1.416-0.584zm1.416 2.084c0 0.277 0.223 0.5 0.5 0.5s0.5-0.223 0.5-0.5-0.223-0.5-0.5-0.5-0.5 0.223-0.5 0.5zm4.5-0.5c-0.277 0-0.5 0.223-0.5 0.5s0.223 0.5 0.5 0.5 0.5-0.223 0.5-0.5-0.223-0.5-0.5-0.5zm-9 2c-0.277 0-0.5 0.223-0.5 0.5s0.223 0.5 0.5 0.5 0.5-0.223 0.5-0.5-0.223-0.5-0.5-0.5zm5 0c-0.277 0-0.5 0.223-0.5 0.5s0.223 0.5 0.5 0.5 0.5-0.223 0.5-0.5-0.223-0.5-0.5-0.5zm6 0c-0.277 0-0.5 0.223-0.5 0.5s0.223 0.5 0.5 0.5 0.5-0.223 0.5-0.5-0.223-0.5-0.5-0.5zm-13 2c-0.277 0-0.5 0.223-0.5 0.5s0.223 0.5 0.5 0.5 0.5-0.223 0.5-0.5-0.223-0.5-0.5-0.5zm7 0c-0.277 0-0.5 0.223-0.5 0.5s0.223 0.5 0.5 0.5 0.5-0.223 0.5-0.5-0.223-0.5-0.5-0.5z" fill="#4d4d4d" transform="matrix(1 0 0 1 0 0)"/>
</svg>
